telier/img/about-tel.svg

<svg width="20" height="20" viewBox="0 0 20 20" fill="none" xmlns="http://www.w3.org/2000/svg">
<circle cx="10" cy="10" r="10" fill="#0047FF"/>
<path fill-rule="evenodd" clip-rule="evenodd" d="M6.05934 5.98428C5.90909 7.02323 5.761 9.82915 7.96592 12.0341C10.1708 14.239 12.9768 14.0909 14.0157 13.9407V11.8147L11.8327 11.4509L11.5031 12.11C11.4197 12.2768 11.2493 12.3821 11.0629 12.3821V11.8899C11.0629 12.3821 11.0627 12.3821 11.0624 12.3821L11.0619 12.3821L11.0608 12.3821L11.0583 12.3821L11.0522 12.382C11.0477 12.3819 11.0422 12.3818 11.0357 12.3816C11.0228 12.3812 11.0062 12.3804 10.9859 12.3791C10.9455 12.3764 10.8909 12.3713 10.8241 12.3617C10.6906 12.3427 10.5077 12.3057 10.2921 12.2338C9.85916 12.0895 9.29861 11.8059 8.74635 11.2537C8.19409 10.7014 7.91053 10.1408 7.76622 9.70791C7.69435 9.49229 7.65733 9.30939 7.63825 9.17588C7.62871 9.10908 7.62364 9.05446 7.62094 9.01406C7.61959 8.99385 7.61884 8.97717 7.61843 8.96427C7.61822 8.95781 7.61809 8.95231 7.61802 8.94777L7.61795 8.9417L7.61793 8.93921L7.61793 8.93811L7.61793 8.9376C7.61793 8.93735 7.61793 8.9371 8.11007 8.9371H7.61793C7.61793 8.77256 7.70017 8.6189 7.83708 8.52762L8.98124 7.76485L8.26901 5.98428H6.05934ZM8.63845 9.17633L9.52722 8.58381C9.9145 8.32563 10.068 7.83146 9.89512 7.3993L9.18289 5.61873C9.03341 5.24504 8.67149 5 8.26901 5H6.03363C5.58651 5 5.16565 5.31062 5.09225 5.79574C4.92526 6.89941 4.69797 10.1581 7.26993 12.7301C9.8419 15.302 13.1006 15.0747 14.2043 14.9078C14.6894 14.8344 15 14.4135 15 13.9664V11.8147C15 11.3335 14.6521 10.9229 14.1775 10.8438L11.9945 10.48C11.5683 10.4089 11.1455 10.6242 10.9523 11.0107L10.7818 11.3517C10.7282 11.3386 10.6683 11.3217 10.6034 11.3C10.2981 11.1983 9.87435 10.9897 9.44234 10.5577C9.01032 10.1256 8.80174 9.70192 8.69998 9.39665C8.67249 9.31416 8.65269 9.23999 8.63845 9.17633Z" fill="white"/>
</svg>

<svg width="20" height="20" fill="none" xmlns="http://www.w3.org/2000/svg"><circle cx="10" cy="10" r="10" fill="#0047FF"/><path fill-rule="evenodd" clip-rule="evenodd" d="M6.06 5.984c-.15 1.04-.299 3.845 1.906 6.05 2.205 2.205 5.01 2.057 6.05 1.907v-2.126l-2.183-.364-.33.659a.492.492 0 01-.44.272v-.492.492h-.027a1.55 1.55 0 01-.212-.02 3.052 3.052 0 01-.532-.128 3.966 3.966 0 01-1.546-.98 3.966 3.966 0 01-.98-1.546 3.064 3.064 0 01-.145-.694 1.434 1.434 0 01-.003-.066v-.01h.492-.492c0-.165.082-.32.22-.41l1.143-.763-.712-1.78h-2.21zm2.578 3.192l.89-.592a.984.984 0 00.367-1.185l-.712-1.78A.984.984 0 008.269 5H6.034a.942.942 0 00-.942.796c-.167 1.103-.394 4.362 2.178 6.934s5.83 2.345 6.934 2.178a.942.942 0 00.796-.942v-2.151a.984.984 0 00-.822-.971l-2.184-.364a.984.984 0 00-1.042.53l-.17.342a2.243 2.243 0 01-.179-.052 2.983 2.983 0 01-1.16-.742A2.984 2.984 0 018.7 9.397a2.256 2.256 0 01-.062-.22z" fill="#fff"/></svg>
